svgs/regular/ferry.svg

<svg xmlns="http://www.w3.org/2000/svg" viewBox="0 0 576 512"><!--! Font Awesome Pro 6.3.0 by @fontawesome - https://fontawesome.com License - https://fontawesome.com/license (Commercial License) Copyright 2023 Fonticons, Inc. --><path d="M192 32c0-17.7 14.3-32 32-32H352c17.7 0 32 14.3 32 32h68c17.1 0 28.7 17.4 22.2 33.2L468 80h4c30.9 0 56 25.1 56 56V293.9c0 11.5-3.5 22.7-10.1 32.1l-50.2 71.7c-7.6 10.9-22.6 13.5-33.4 5.9s-13.5-22.6-5.9-33.4L463.5 320H424 152 112.5l35.2 50.2c7.6 10.9 5 25.8-5.9 33.4s-25.8 5-33.4-5.9L58.1 326C51.5 316.6 48 305.4 48 293.9V136c0-30.9 25.1-56 56-56h4l-6.2-14.8C95.3 49.4 106.9 32 124 32h68zM480 272V136c0-4.4-3.6-8-8-8H448 128 104c-4.4 0-8 3.6-8 8V272h32V184c0-13.3 10.7-24 24-24H424c13.3 0 24 10.7 24 24v88h32zM176 208v64H400V208H176zM111.9 430.1c21.5 18.6 51.2 33.9 80 33.9s58.5-15.3 80-33.9c9.1-8.1 22.8-8.1 31.9 0c21.6 18.6 51.2 33.9 80 33.9s58.5-15.3 80-33.9c9.1-8.1 22.8-8.1 31.9 0c16.9 15.1 39.3 26.8 61.3 31.8c12.9 2.9 21.1 15.7 18.2 28.7s-15.7 21.1-28.7 18.2c-28.7-6.4-52.3-20.5-66.7-30.4c-28.1 19.5-61.4 33.8-96 33.8s-67.9-14.3-96-33.8c-28.1 19.5-61.4 33.8-96 33.8s-67.9-14.3-96-33.8c-14.4 10-38 24-66.7 30.4c-12.9 2.9-25.8-5.2-28.7-18.2s5.2-25.8 18.2-28.7c22.2-5 44-16.8 61.2-31.7c9.1-8.1 22.8-8.1 31.9 0z"/></svg>

<svg xmlns="http://www.w3.org/2000/svg" viewBox="0 0 576 512"><!--! Font Awesome Pro 6.2.0 by @fontawesome - https://fontawesome.com License - https://fontawesome.com/license (Commercial License) Copyright 2022 Fonticons, Inc. --><path d="M192 32C192 14.33 206.3 0 224 0H352C369.7 0 384 14.33 384 32H452C469.1 32 480.7 49.42 474.2 65.23L468 80H472C502.9 80 528 105.1 528 136V293.9C528 305.4 524.5 316.6 517.9 326L467.7 397.8C460.1 408.6 445.1 411.3 434.2 403.7C423.4 396.1 420.7 381.1 428.3 370.2L463.5 320H112.5L147.7 370.2C155.3 381.1 152.6 396.1 141.8 403.7C130.9 411.3 115.9 408.6 108.3 397.8L58.12 326C51.53 316.6 48 305.4 48 293.9V136C48 105.1 73.07 80 104 80H108L101.8 65.23C95.26 49.42 106.9 32 124 32H192zM480 136C480 131.6 476.4 128 472 128H104C99.58 128 96 131.6 96 136V272H128V184C128 170.7 138.7 160 152 160H424C437.3 160 448 170.7 448 184V272H480V136zM176 208V272H400V208H176zM191.1 464C220.8 464 250.5 448.7 272 430.1C281.1 421.1 294.9 421.1 303.1 430.1C325.5 448.7 355.1 464 383.1 464C412.8 464 442.5 448.7 464 430.1C473.1 421.1 486.8 421.1 495.9 430.1C512.9 445.1 535.2 456.9 557.2 461.8C570.1 464.7 578.3 477.5 575.4 490.5C572.5 503.4 559.6 511.5 546.7 508.6C518 502.2 494.4 488.2 479.1 478.2C451.9 497.7 418.6 512 383.1 512C349.4 512 316.1 497.7 287.1 478.2C259.9 497.7 226.6 512 191.1 512C157.4 512 124.1 497.7 95.98 478.2C81.61 488.2 57.99 502.2 29.31 508.6C16.37 511.5 3.535 503.4 .6339 490.5C-2.267 477.5 5.865 464.7 18.8 461.8C41 456.8 62.76 444.1 79.1 430.1C89.09 421.1 102.8 421.1 111.9 430.1C133.5 448.7 163.1 464 191.1 464L191.1 464z"/></svg>
